static/images/earn/woo.svg

<svg height="47" viewBox="0 0 47 47" width="47" xmlns="http://www.w3.org/2000/svg"><g fill="none" fill-rule="evenodd" transform="translate(-2 -5)"><path d="m0 0h56v56h-56z"/><path d="m16.0947654 42.6c-2.5840403 0-4.6747639 2.115-4.6747639 4.7s2.0907236 4.7 4.6747639 4.7 4.6982551-2.115 4.6982551-4.7-2.1142148-4.7-4.6982551-4.7zm23.4912756 0c-2.5840403 0-4.6747638 2.115-4.6747638 4.7s2.0907235 4.7 4.6747638 4.7c2.5840404 0 4.6982552-2.115 4.6982552-4.7s-2.1142148-4.7-4.6982552-4.7zm-3.4062349-11.75c1.7618456 0 3.3122698-.9635 4.1109732-2.4205l8.4098767-15.2515c.8691772-1.551-.258404-3.478-2.043741-3.478h-34.767088l-2.20817986-4.7h-7.68164714v4.7h4.69825513l8.45685927 17.8365-3.1713223 5.734c-1.7148631 3.149.5402994 6.9795 4.1109733 6.9795h28.1895308v-4.7h-28.1895308l2.5840403-4.7zm-22.0583079-16.45h28.5418999l-6.483592 11.75h-16.4908755z" fill="#7ea7bf" fill-rule="nonzero"/></g></svg>

<?xml version="1.0" encoding="UTF-8"?>
<svg width="47px" height="47px" viewBox="0 0 47 47" version="1.1" xmlns="http://www.w3.org/2000/svg" xmlns:xlink="http://www.w3.org/1999/xlink">
    <!-- Generator: Sketch 53.2 (72643) - https://sketchapp.com -->
    <title>woo</title>
    <desc>Created with Sketch.</desc>
    <g id="Page-1" stroke="none" stroke-width="1" fill="none" fill-rule="evenodd">
        <g id="woo" transform="translate(-2.000000, -5.000000)">
            <polygon id="Path" points="0 0 56 0 56 56 0 56"></polygon>
            <path d="M16.0947654,42.6 C13.5107251,42.6 11.4200015,44.715 11.4200015,47.3 C11.4200015,49.885 13.5107251,52 16.0947654,52 C18.6788057,52 20.7930205,49.885 20.7930205,47.3 C20.7930205,44.715 18.6788057,42.6 16.0947654,42.6 Z M39.586041,42.6 C37.0020007,42.6 34.9112772,44.715 34.9112772,47.3 C34.9112772,49.885 37.0020007,52 39.586041,52 C42.1700814,52 44.2842962,49.885 44.2842962,47.3 C44.2842962,44.715 42.1700814,42.6 39.586041,42.6 Z M36.1798061,30.85 C37.9416517,30.85 39.4920759,29.8865 40.2907793,28.4295 L48.700656,13.178 C49.5698332,11.627 48.442252,9.7 46.656915,9.7 L11.889827,9.7 L9.68164714,5 L2,5 L2,9.7 L6.69825513,9.7 L15.1551144,27.5365 L11.9837921,33.2705 C10.268929,36.4195 12.5240915,40.25 16.0947654,40.25 L44.2842962,40.25 L44.2842962,35.55 L16.0947654,35.55 L18.6788057,30.85 L36.1798061,30.85 Z M14.1214982,14.4 L42.6633981,14.4 L36.1798061,26.15 L19.6889306,26.15 L14.1214982,14.4 Z" id="Shape" fill="#7EA7BF" fill-rule="nonzero"></path>
        </g>
    </g>
</svg>
